X:10
T:Comet, The
M:6/8
L:1/8
B:Thompson's Compleat Collection of 200 Favourite Country Dances, vol. 2 (London, 1765)
Z:Transcribed and edited by Flynn Titford-Mock, 2007
Z:abc's:AK/Fiddler's Companion
K:G
D | G>AG B2G | d>ed f2d | gfe dcB | A>BG FED | G>AG B2G | d>ed f2g | afd ge^c | d3 D2 :|
|: d | dgb d2d | cfa c2c | Beg B2B | A>BG FED | GDG BGB | def gfe | dBG cAF | (G3 G2) :|

